X:1
T:Title
%%score { 1 | 2 }
L:1/8
M:2/4
K:D
V:1 treble nm="Grand Piano"
V:2 bass 
V:1
 z2 z[Q:1/4=94] [FA] | [FA][FA] [FA][FA] | [FA]2 [DF]2 | [CE][CE] [EG][EG] | [DF]2 [FA][FA] | %5
 [FA][FA] [FA][FA] | [FA]2 FD | [DF]2 [CE]2 | D3 A | AA F[FA] | B B2 B | [FA][FA] FD | %12
 [DF] [CE]2 [EA] | AA F[FA] | B B2 B | A>A [EG][CE] | D4 | [Fd]2 [Ac]>[GB] | [FA]2 [DF][FA] | %19
 [EG]2 [CE][EG] | [DF]2 [FA]2 | [Fd]2 [Ac]>[GB] | [FA]2 [A,DF][A,FA] | [A,EG]2[K:bass] [G,CE]2 | %24
[M:3/8] [F,D]3 |] %25
V:2
 z2 z [D,D] | [D,D][D,D] [D,D][D,D] | [D,D]2 [D,A,]2 | [A,,A,][A,,A,] [A,,A,][A,,A,] | %4
 [D,A,]2 [D,D][D,D] | [D,D][D,D] [D,D][D,D] | [D,D]2 [D,A,D][D,F,] | [A,,A,]2 [A,,G,]2 | %8
 [D,F,]3 [D,F,D] | [D,F,D][D,F,D] [D,A,D][D,D] | [G,DG] [G,DG]2 [G,DG] | [D,D][D,D] [D,A,D][D,F,] | %12
 [A,,A,] [A,,A,]2 [C,G,] | [D,F,D][D,F,D] [D,A,D][D,D] | [G,DG] [G,DG]2 [G,DG] | %15
 [A,DF]>[A,F][K:bass] [A,,A,][A,,G,] | [D,F,]4 | [D,A,]2 [D,D]>[D,D] | [D,D]2 [D,A,][D,A,] | %19
 [A,,A,]2 [A,,A,][A,,A,] | [D,A,]2 [D,D]2 | [D,A,]2 [D,D]>[D,D] | [D,D]2 D,D, | A,,2 A,,2 | %24
[M:3/8] D,3 |] %25

